nextcloudappstore/core/static/assets/img/icons/categories/office-building.svg

<svg width="20" height="20" fill="none" style="-webkit-print-color-adjust:exact" version="1.1" viewBox="-0 0 20 20" xmlns="http://www.w3.org/2000/svg"><g rx="0" ry="0" fill="#000"><g class="fills"><path rx="0" ry="0" d="m4.167 2.5v15h5v-2.917h1.666v2.917h5v-15h-11.666zm1.666 1.667h1.667v1.666h-1.667v-1.666zm3.334 0h1.666v1.666h-1.666v-1.666zm3.333 0h1.667v1.666h-1.667v-1.666zm-6.667 3.333h1.667v1.667h-1.667v-1.667zm3.334 0h1.666v1.667h-1.666v-1.667zm3.333 0h1.667v1.667h-1.667v-1.667zm-6.667 3.333h1.667v1.667h-1.667v-1.667zm3.334 0h1.666v1.667h-1.666v-1.667zm3.333 0h1.667v1.667h-1.667v-1.667zm-6.667 3.334h1.667v1.666h-1.667v-1.666zm6.667 0h1.667v1.666h-1.667v-1.666z" fill="#007bbd"/></g></g></svg>

<svg xmlns:xlink="http://www.w3.org/1999/xlink" width="20" xmlns="http://www.w3.org/2000/svg" height="20" id="screenshot-db15cf86-6f9e-8025-8002-bbab9ed6fdd9" viewBox="-0 0 20 20" style="-webkit-print-color-adjust: exact;" fill="none" version="1.1"><g id="shape-db15cf86-6f9e-8025-8002-bbab9ed6fdd9" rx="0" ry="0" style="fill: rgb(0, 0, 0);"><g id="shape-db15cf86-6f9e-8025-8002-bbab9ed6fddb"><g class="fills" id="fills-db15cf86-6f9e-8025-8002-bbab9ed6fddb"><path rx="0" ry="0" d="M4.167,2.500L4.167,17.500L9.167,17.500L9.167,14.583L10.833,14.583L10.833,17.500L15.833,17.500L15.833,2.500L4.167,2.500ZM5.833,4.167L7.500,4.167L7.500,5.833L5.833,5.833L5.833,4.167ZM9.167,4.167L10.833,4.167L10.833,5.833L9.167,5.833L9.167,4.167ZM12.500,4.167L14.167,4.167L14.167,5.833L12.500,5.833L12.500,4.167ZM5.833,7.500L7.500,7.500L7.500,9.167L5.833,9.167L5.833,7.500ZM9.167,7.500L10.833,7.500L10.833,9.167L9.167,9.167L9.167,7.500ZM12.500,7.500L14.167,7.500L14.167,9.167L12.500,9.167L12.500,7.500ZM5.833,10.833L7.500,10.833L7.500,12.500L5.833,12.500L5.833,10.833ZM9.167,10.833L10.833,10.833L10.833,12.500L9.167,12.500L9.167,10.833ZM12.500,10.833L14.167,10.833L14.167,12.500L12.500,12.500L12.500,10.833ZM5.833,14.167L7.500,14.167L7.500,15.833L5.833,15.833L5.833,14.167ZM12.500,14.167L14.167,14.167L14.167,15.833L12.500,15.833L12.500,14.167ZZ" style="fill: rgb(0, 123, 189); fill-opacity: 1;"/></g></g></g></svg>
